X:1
T:Title
T:9. Sogno (1886) Melodia
T:Tosti
C:Composer
%%score 1 { 2 | 3 }
L:1/8
Q:1/4=80
M:6/8
K:Gb
V:1 treble nm="Baritono" snm="Bar."
V:2 treble nm="Piano" snm="Pf."
V:3 bass 
V:1
 z6 | z6 | z6 | z6 | z2 z !tenuto!G2 !tenuto!=D | %5
w: ||||Ho so-|
 !tenuto!F !tenuto!E !tenuto!E !tenuto!A !tenuto!G !tenuto!A | %6
w: gna- to che sta- via gi-|
 !tenuto!B2 !tenuto!B z !tenuto!G !tenuto!=D | %7
w: noc- chi Co- me~un|
 !tenuto!F !tenuto!E !tenuto!F !tenuto!G !tenuto!B !tenuto!A | %8
w: san- to che pre- ga~il Si-|
 !tenuto!A3- !tenuto!A!<(! !tenuto!B !tenuto!B | %9
w: gnor,................... * Mi guar-|
 !tenuto!B !tenuto!=A !tenuto!B!<)! !tenuto!_d !tenuto!=c !tenuto!d | %10
w: da- vi nel fon- do de-|
 !tenuto!e2 !tenuto!d z!>(! !tenuto!d !tenuto!d | %11
w: gl'oc- chi, Sfa- vil-|
 !tenuto!d !tenuto!c!>)! !tenuto!B !tenuto!B !tenuto!A3/2 !tenuto!G/ | %12
w: la- va~il tuo sguard- do d'a-|
 !tenuto!G2 z z!p! !tenuto!B !tenuto!B | %13
w: mor. Tu par-|
 !tenuto!B !tenuto!A !tenuto!G !tenuto!F !tenuto!G !tenuto!A | %14
w: la vi~e la vo- ce som-|
 !tenuto!B2 !tenuto!B- !tenuto!B !tenuto!B !tenuto!B | %15
w: mes- sa........ * Mi chie-|
 !tenuto!B !tenuto!A !tenuto!G{!tenuto!G-!tenuto!A} !tenuto!G !tenuto!F !tenuto!G | %16
w: dea dol- ce- men te mer-|
 !tenuto!A3- !tenuto!A z z | !tenuto!d3 !tenuto!B2 !tenuto!G | %18
w: cè,.............. *|So- lo un|
!<(! !tenuto!F3 !tenuto!F2 !tenuto!d!<)! | !tenuto!e3 !tenuto!d2 !tenuto!B | %20
w: guar- do che|fos- se pro-|
 !tenuto!d3 !tenuto!c3- | !tenuto!c2 z z !tenuto!G !tenuto!A | !tenuto!B3 !tenuto!D z !tenuto!G | %23
w: mes- sa...........|... Im- plo-|ra- vi cur-|
 !tenuto!B3{!tenuto!A-!tenuto!B} !tenuto!A2 !tenuto!G | !tenuto!G3- !tenuto!G z z | z6 | z6 | z6 | %28
w: va to~al mio|piè............................... *||||
 z2 z G2 !tenuto!=D | !tenuto!F !tenuto!E !tenuto!E !tenuto!A !tenuto!G !tenuto!A | %30
w: Io ta-|ce- va,e col- l'a- ni- ma|
 !tenuto!B2 !tenuto!B z !tenuto!G !tenuto!=D | %31
w: for- te Il de-|
!<(! !tenuto!F !tenuto!E !tenuto!F !tenuto!G !tenuto!B !tenuto!A!<)! | %32
w: sio ten- ta- to- re lot-|
 !tenuto!A3- !tenuto!A!<(! !tenuto!B !tenuto!B | %33
w: tò........................... * Ho pro-|
 !tenuto!B !tenuto!=A !tenuto!B!<)! !tenuto!_d !tenuto!=c !tenuto!d | %34
w: va- to~il mar- ti- rio~e la|
 !tenuto!e2 !tenuto!d z !tenuto!d !tenuto!d | %35
w: mor- te, Pur mi|
 !tenuto!d !tenuto!c !tenuto!B !tenuto!B !tenuto!A3/2 !tenuto!G/ | %36
w: vin- si~e ti dis- si di|
 !tenuto!G2 z z!p! !tenuto!B !tenuto!B | %37
w: no. Ma~il tuo|
 !tenuto!B !tenuto!A !tenuto!G !tenuto!F !tenuto!G !tenuto!A | %38
w: lab- bro sfio- rò la mia|
 !tenuto!B2 !tenuto!B- !tenuto!B !tenuto!B !tenuto!B | %39
w: fac- cia........... .. E la|
 !tenuto!B !tenuto!A !tenuto!G !tenuto!G !tenuto!F !tenuto!G | !tenuto!A3- !tenuto!A z z || %41
w: for- za del cor mi tra-|dì.............................. *|
!pp! !tenuto!d3 !tenuto!B2 !tenuto!G |!<(! !tenuto!F3 !tenuto!F2 !tenuto!d!<)! | %43
w: Chiu- si gli|oc- chi, ti|
 !tenuto!e3 !tenuto!d2 !tenuto!B | !tenuto!d3 !tenuto!c3- | %45
w: ste- si le|brac- cia,.....................|
 !tenuto!c z z!pp! !tenuto!G2 !tenuto!A | !tenuto!B3 !tenuto!D z !tenuto!G/ !tenuto!G/ | %47
w: * Ma so-|gna- vo e~il bel|
 !tenuto!B3{!tenuto!A-!tenuto!B} !tenuto!A2 !tenuto!G | !tenuto!G3- !tenuto!G z z | z6 | z6 | z6 | %52
w: so- gno sva-|nì!............... *||||
 z6 |] %53
w: |
V:2
 z2 z (!tenuto!f'2 !tenuto!d | !tenuto![Fd]3) (!tenuto![Ge]2 !tenuto!B | %2
 !tenuto![EB]2 !tenuto!A !tenuto![DA]!tenuto!G!tenuto!A | (!tenuto![DG-]6) | %4
 !tenuto![DG]) z z z/ (=D,/G,/D/B,/G,/) | z/ ((E,/A,/E/C/A,/)) z/ ((A,/E/A/G/E/)) | %6
 z/ !tenuto!G,/!tenuto!B,/!tenuto!G/!tenuto!D/!tenuto!B,/ z/ ((=D,/G,/=D/B,/G,/)) | %7
 z/ (!tenuto!E,/!tenuto!A,/!tenuto!E/!tenuto!C/!tenuto!A,/) z/ (!tenuto!A,/!tenuto!E/!tenuto!A/!tenuto!G/!tenuto!E/) | %8
 z/ (!tenuto!A,/!tenuto!D/!tenuto!A/!tenuto!F/!tenuto!D/) z/ (!tenuto!B,/!tenuto!F/!tenuto!B/!tenuto!A/!tenuto!F/) | %9
 z/ (!tenuto!B,/!tenuto!F/!tenuto!B/!tenuto!A/!tenuto!F/) z/ (!tenuto!D/!tenuto!A/!tenuto!d/!tenuto!_c/!tenuto!A/) | %10
 z/ (!tenuto!D/!tenuto!B/!tenuto!d/!tenuto!B/!tenuto!G/) z/ (!tenuto!_F/!tenuto!B/!tenuto!_f/!tenuto!d/!tenuto!B/) | %11
 z/ (!tenuto!E/!tenuto!A/!tenuto!e/!tenuto!c/!tenuto!A/) z/ (!tenuto!C/!tenuto!=F/!tenuto!c/!tenuto!F/!tenuto!C/) | %12
 z/ (!tenuto!B,/!tenuto!D/!tenuto!B/!tenuto!G/!tenuto!D/) z/ (!tenuto!B,/!tenuto!=D/!tenuto!B/!tenuto!A/!tenuto!D/) | %13
 (!tenuto!B,/!tenuto!E/!tenuto!B/!tenuto!G/!tenuto!E/) z/ !tenuto!B,/-!tenuto!F/!tenuto!B/!tenuto!F/!tenuto!B,/ z/ | %14
 z/ (!tenuto!A,/!tenuto!D/!tenuto!B/!tenuto!G/!tenuto!E/) z/ (!tenuto!A,/!tenuto!D/!tenuto!B/!tenuto!G/!tenuto!E/) | %15
 z/ (!tenuto!G,/!tenuto!E/!tenuto!A/!tenuto!G/!tenuto!E/) z/ (!tenuto!G,/!tenuto!=C/!tenuto!G/!tenuto!E/!tenuto!C/) | %16
 z/ (E,/!tenuto!_C/F/D/C/) z/ (D/!tenuto!F/d/B/A/) | z2 z (g2 d | [Fd]3-) [Fd] z z | %19
 z2 z!>(! g2!>)! B | [G-d]3 c3- | [Gc]6- | [Gcg]3- [Gcg] z B,- | D3 C2 B,- | B, z z!>(! (g2!>)! d | %25
 [Fd]3) [Ge]2 B- | [EB]2 A- [D-A]GA | [DG]6- | [DG] z z z z/ z/ z | %29
 z/ (E,/A,/E/C/A,/) z/ (F,/C/F/D/C/) | (G,/B,/G/D/B,/) z2 z z/ | %31
 z/ (E,/A,/E/C/A,/) z/ (A,/E/A/G/E/) | z/ (A,/D/A/F/D/) z/ (B,/F/B/A/F/) | %33
 z/ (A,/E/A/G/E/) z/ (D/A/d/_c/A/) | z/ (D/B/d/B/G/) z/ (_F/B/_f/d/B/) | %35
 z/ (E/A/e/c/A/) z/ (C/=F/c/F/C/) | z/ (B,/D/B/G/D/) z/ (B,/=D/B/A/D/) | %37
 z/ (B,/E/B/G/E/) z/ (B,/F/B/F/B,/) | z/ (B,/E/B/G/E/) z/ (B,/E/B/G/E/) | %39
 z/ (A,/E/A/G/E/) z/ (G,/=C/G/E/C/) | z/ (F,/_C/F/D/C/) z/ (D/F/d/B/A/) || z2 z (g2 d | %42
 [Fd]3-) [Fd] z z | z2 z (!>!g2 d | [G-d]3 c3-) | [Gc]6 | [GBg]3- [GBg] z (B, | D3 C2 B, | %48
 B,) z z (!>!g2 d | [Fd]3) [Ge]2 B | [EB]2 (A ([DA]GA | G6-)) | G2 z4 |] %53
V:3
 (G,,/D,/G,/B,/G,/D,/) (G,,/D,/G,/B,/G,/D,/) | (A,,/D,/F,/C/F,/D,/) (B,,/D,/G,/B,/G,/D,/) | %2
 (C,/E,/A,/C/G,/D,/) (D,/F,/A,/C/F,/D,/) | (G,,/D,/G,/B,/G,/D,/) (G,,/D,/G,/B,/G,/D,/) | %4
 (G,,/D,/G,/B,/G,/D,/) B,,3 | C,3 (=D,3 | G,,3) B,,3 | E,3 (=C,3 | D,3)!>(! (=D,3!>)! | E,3) (F,3 | %10
 G,3)!>(! (=G,3!>)! | A,3) (D,3 | G,3) (F,3 | E,3) (=D,3 | E,3) (_D,3 | =C,3) A,,3 | (D,6 | %17
 (G,,/)D,/G,/B,/G,/D,/) (B,,/D,/G,/B,/G,/D,/) | (A,,/D,/F,/C/D,/B,,/) (A,,/D,/F,/C/D,/B,,/) | %19
 (G,,/D,/G,/B,/G,/D,/) (_F,/G,/B,/D/B,/G,/) | (E,/G,/C/E/C/G,/) ((E,/G,/C/E/C/G,/)) | __E,6 | %22
 (D,/G,/B,/D/B,/G,/ D,) z z | z2 z D,,3 | (G,,/D,/G,/B,/G,/D,/) (G,,/D,/G,/B,/G,/D,/) | %25
 (A,,/D,/F,/C/F,/D,/) (B,,/C,/G,/B,/G,/D,/) | (C,/E,/A,/C/A,/E,/) ((C,/F,/A,/C/F,/D,/)) | %27
 (G,,/D,/G,/B,/G,/D,/) (G,,/D,/G,/B,/G,/D,/) | (G,,/D,/G,/B,/G,/D,/) B,,3 | C,3 D,3 | G,,3 B,,3 | %31
 C,3 =C,3 | D,3 (!>!=D,3 | E,3) (F,3 | G,3) (!>!=G,3 | A,3) (D,3 | E,3) (_D,3 | =C,3) (A,,3 | %38
 E,3) (_D,3 | =C,3) A,,3 | D,6 || (G,,/D,/G,/B,/G,/D,/) (B,,/D,/G,/B,/G,/D,/) | %42
 (A,,/D,/F,/C/F,/D,/) (A,,/D,/F,/C/F,/D,/) | (G,,/D,/G,/B,/G,/D,/) (_F,/G,/B,/D/B,/G,/) | %44
 (E,/G,/C/E/C/G,/) (E,/G,/C/E/C/G,/) | __E,6 | (D,/G,/B,/D/B,/G,/ D,) z z | z2 z (D,,3 | %48
 ((G,,/)D,/G,/B,/G,/D,/)) (G,,/D,/G,/B,/G,/D,/) |!>(! (A,,/D,/F,/C/F,/D,/) (B,,/D,/G,/B,/G,/D,/) | %50
 (C,/E,/A,/C/A,/E,/)!>)! (D,/F,/A,/C/F,/D,/) | (G,,/D,/G,/B,/G,/D,/) (G,,/D,/G,/B,/G,/D,/ | %52
 G,,2) z z2 z |] %53

